X:693
T: "Buko von Halberstadt"
N: Z1374
O: Europa, Mitteleuropa, Deutschland
R: Kinder - Lied
M: 2/4
L: 1/16
K: F
 | c4AAd2 | c2cBA4
c2cBA2d2 | c2cBA2
C2 | F2G2A2F2 | B2A2G2
A2 | F2G2A2F2 | B2A2G2
G2 | c2AAB2AG | G4F4

